modules/admin/src/resources/images/flags/1x1/as.svg

<svg xmlns="http://www.w3.org/2000/svg" height="512" width="512"><defs><clipPath id="a"><path fill="gray" d="M496.06 15.937h496.06v496.06H496.06z"/></clipPath></defs><g clip-path="url(#a)" transform="translate(-512 -16.45) scale(1.032)"><path fill="#006" d="M0 15.937h992.13v496.06H0z"/><path d="M0 263.97L992.13 512V15.94L0 263.97z" fill-rule="evenodd" fill="#bd1021"/><path d="M992.13 42.512v442.91L106.3 263.962l885.83-221.46z" fill-rule="evenodd" fill="#fff"/><g stroke="#000"><path stroke-linejoin="round" d="M825.487 319.59s-6.193-5.07 1.127-13.234c-3.942-3.378-.282-9.853-.282-9.853s-6.757-2.534.282-12.95c-5.068-3.38-2.816-10.982-2.816-10.982s-16.61-6.193-.844-12.104c-12.95 5.63-25.058-7.603-25.058-7.603l-18.863.564c-3.2-15.67-28.07-2.06-9.58-47.01-4.787-.846-10.136-2.253-15.485 1.688-5.35 3.94-20.553 12.387-29.562 3.94s5.91-20.552 6.194-20.833c.28-.28 19.99-10.417 22.804-17.173-.28-5.07-6.475-9.01-.845-19.99 6.475-10.418 46.17-20.273 64.2-23.65 8.726-3.943 12.668-11.544 12.668-11.544l1.97 7.32s39.98-11.825 41.95-17.456.846 5.068.846 5.068c15.766-1.408 35.755-14.92 38.57-8.728 13.233-2.534 38.573-13.795 38.573-13.795s8.727-.28 2.533 9.29c3.942 6.195-1.126 11.544-1.407 11.544-.283 0 1.688 6.193-3.38 9.572 1.69 5.35-3.097 9.572-3.097 9.572s2.254 6.476-6.756 9.854c.845 5.63-5.068 6.757-5.068 6.757s.845 5.913-3.097 8.447c0 4.504-4.504 6.757-4.504 6.757s2.815 1.688-1.126 4.503c-3.94 2.816-44.765 27.873-44.765 27.592 0-.282 29.843 5.35 31.813 6.475s24.495 16.05 24.495 16.05l-22.806 28.153s-25.338-2.815-26.464-1.408 5.35 1.97 6.756 4.223c1.41 2.252 3.66 7.603 8.165 7.04 4.504-.565-8.447 8.164-16.893 9.01 0 3.096 10.698 3.377 13.514.844 2.817-2.535-6.757 7.32-7.883 8.727s12.67-1.972 12.67-1.972-2.253 9.29-14.358 12.107c4.784 7.883 2.813 12.95 2.532 12.95s-7.884-7.883-15.204-6.475c1.97 7.602 7.884 14.64 9.574 15.767 1.688 1.126-13.233.844-15.204-3.38s-3.66 10.136 1.69 14.642c-6.194.28-11.544-3.38-11.544-3.38s-3.66 8.445-1.126 12.67c2.534 4.223-8.728-8.448-8.728-8.448l-21.397 9.01-4.787-8.165z" fill-rule="evenodd" stroke-width="1.706" fill="#9c3900"/><path d="M660.12 302.828c.5 0 31.083-.502 45.123-8.524 7.02 11.03 16.545 18.55 16.545 18.55l4.512-16.042s11.03.5 12.033 3.008c-1.504 3.007-2.005 7.018-2.005 7.018s7.52.503 8.02 1.504c.503 1.004-2.004 9.526-2.004 9.526l32.087 7.52s2.508-12.533 5.015-11.03c2.507 1.505 13.537 17.047 29.08 18.05s16.544-13.036 16.544-13.036l3.51 2.007s6.516-14.04 7.52-14.04 2.506 2.006 11.03 2.006c2.506 3.008 3.51 10.026 3.51 10.026s-9.528 9.527-6.52 17.048 3.51 5.514 3.51 5.514l69.19 16.545s3.51 5.515-2.507 8.523c0 .5-69.69-16.044-69.69-16.044s-6.52 7.52-11.532 6.015-1.503 3.008-1.503 3.008L906.79 366s5.517 7.02 1.506 9.025c-5.014.5-81.222-5.014-81.222-5.014s-4.512 9.527-9.525 1.505c-3.51 5.515-7.522-1.504-7.522-1.504s-6.517 5.015-7.52-.5c-5.516 4.01-9.025-2.507-9.025-2.507l-32.088-2.006-2.005 3.008s5.515 1.504-3.008 5.015c-8.523 3.51 51.138 2.005 52.643 2.505 1.504.503-4.01 5.015-4.01 5.015s30.583 2.005 36.097-4.512c5.516-6.52-2.005 8.522-2.005 8.522s24.066-1.002 24.066-2.005-.502 7.52-17.046 6.518c10.026 6.518 22.56 10.528 22.56 10.528s-12.534 3.01-27.073-.5c2.506 6.518 13.537 12.534 13.537 12.534s-8.02 7.02-26.07-10.028c5.014 9.025 1.002 12.536.5 11.532-.5-1.003-9.023-13.537-29.078-18.05 12.534 8.023 7.018 11.533 7.018 11.533s-6.517-11.53-17.046 0c-4.01-10.528-19.553-16.544-38.605-17.547-6.017-7.02-9.527-5.014-23.564-9.025-8.022-9.024-19.554-19.05-19.554-19.05s.502-13.54 14.038-12.034c1.504 4.512 1.504 3.008 1.504 3.008s15.042-5.516 19.554 2.005c6.518-11.532 15.542-1.724 17.046 2.286 4.32.633 26.07 1.223 26.07 1.223s-2.506-4.512-1.002-4.01c1.504.5 13.537-4.512 13.036-6.017-.502-1.505-1.003-6.518 1.002-6.017 2.006.5-17.046-2.507-27.575 5.516-3.51-3.512-1.003-13.038-1.003-13.038l-31.084-6.517-1.504 8.022s-9.025 1.504-8.523-.5c.502-2.008-2.005 7.017-2.005 7.017s-12.033-3.008-12.033-3.51 3.51-18.05 3.51-17.548c0 .503-10.028 1.003-24.066 11.532-4.01-12.534-35.597-29.08-35.597-29.58z" fill-rule="evenodd" stroke-width="1.82" fill="#ffc221"/><path d="M736.328 307.346l-6.518 29.08m12.533-18.052l-2.005 9.526m34.094-2.005l-3.008 9.025m58.663 52.136c-.5 0-16.043 2.005-18.05 1.504-2.004-.5 24.568 8.022 24.568 11.53m-34.595-9.512s-15.542-10.027-18.048-9.025c-2.507 1.003 15.542-.5 17.046-2.005m-31.088-.504s-16.043.5-17.547-1.003 15.542 11.03 18.55 10.03m-32.089-16.056c-.5 0-11.03-4.01-15.542-5.015 4.01 4.012 7.02 9.527 17.046 11.532m2.508-13.028c-.502-1.003-20.055-7.02-20.055-10.028 4.513 1.505 11.03 3.51 17.047 2.005m106.792-15.043l-2.005 9.023" stroke-width="1.82" fill="none"/><path d="M699.226 261.717s-21.058 18.048 0 28.577c1.003-7.02 2.507-8.02 2.507-8.02s17.547 6.516 28.076-9.026c-4.513-6.517-12.535-4.01-12.535-4.01s-16.546 0-18.05-7.52z" fill-rule="evenodd" stroke-width="1.82" fill="#ffc221"/><path d="M716.775 269.743l-14.54 12.534m59.319 74.519s3.352 3.695.343 8.207m70.197-4.508l-5.515.502m-39.609-3.517l10.027 1.503m16.943-27.287s.282 10.136-8.164 9.854c-8.446-.282-5.632.282-5.632.282" stroke-width="1.82" fill="none"/><path d="M820.424 330.003s3.378 1.126 2.534 3.66c-.845 2.534.844 9.854-9.01 16.893-10.418 2.252-9.29-8.727-9.29-8.727" stroke-width="1.82" fill="none"/><path d="M824.082 333.102s6.194-3.66 7.038 2.253c.844 5.91-5.067 16.892-9.29 18.582-4.225 1.688-9.01-.283-8.448-3.097m18.302-15.2s5.632-4.505 7.32 1.408c1.69 5.912-4.504 19.145-7.04 19.426m7.596-19.428s2.815-1.407 4.785.28m-13.795 19.989c-1.125.28-5.91.562-7.6-3.097m-17.73-6.758c-.282 0-5.913.283-5.913.283m27.586 21.965l-.562-9.29-2.25-3.098-3.943 3.942s-.564 9.29-2.252 10.136m2.251-10.425c-.28-.562-3.097-5.91-3.097-5.91l-4.787 5.91s-.562 8.447-2.252 9.292m2.247-9.579c0-.28-1.97-5.63-1.97-5.63s-5.63 3.097-6.195 5.35c-.562 2.25-.845 8.445-2.252 9.01m2.255-10.136s.564-5.067-1.126-5.067-9.29 7.038-9.572 13.232" stroke-width="1.82" fill="none"/><path stroke-linejoin="round" d="M699.918 261.868s2.815-2.816 3.66-6.194c.845-3.38-1.126-7.04 2.253-10.136 3.38-3.097 47.862-21.96 51.523-25.62 3.66-3.66 10.417-11.544 11.262-13.233.844-1.69 3.378 8.446-4.224 12.95 8.166-2.252 13.515-4.785 16.893-3.66-3.38 4.787-12.387 12.67-16.61 12.67 9.854-3.66 18.862-6.757 21.397-4.786 2.533 1.97-12.107 11.825-18.02 12.387 9.855-2.533 23.088-6.475 24.776-2.252-5.35 1.69-3.66 3.095-14.64 9.29-1.407 1.128-8.446 1.408-8.446 1.408 8.446-.845 19.99-4.223 21.115 1.97-6.756 2.534-9.29 5.914-14.92 7.32-5.632 1.41-18.583 3.943-26.466 7.04-7.884 3.097-19.428 12.106-19.428 12.106s-25.057.844-25.057.562c0-.282-4.786-11.543-5.068-11.824z" fill-rule="evenodd" stroke-width="1.82" fill="#fff"/><path d="M711.742 259.902s.282-5.63 2.816-7.6c2.533-1.972 15.203-6.76 18.02-10.982 2.814-4.223-4.224 7.32-3.098 10.417m-12.67-.284s6.194 2.254 4.786 7.04" stroke-width="1.82" fill="none"/><path d="M724.13 254.694a4.646 4.646 0 1 1-9.29.003 4.646 4.646 0 0 1 9.289-.004z" stroke-width="1.58" fill="none"/><path d="M914.738 244.697l48.707 9.29s5.35-6.193 2.534-9.57c7.32-1.69 5.348-11.263 5.348-11.263s8.446-3.66 1.408-12.107c4.788-4.786-1.126-8.446-1.126-8.446s1.97-8.445-4.223-9.29c1.69-6.756-10.7-9.01-10.7-9.01s-25.62 7.04-43.638 7.603c5.91 5.912-2.254 9.572-2.254 9.572s4.787 3.38 3.38 6.194c-1.41 2.815.843 5.912-5.35 7.883 8.164 3.66-.845 9.853-.845 9.853s9.01 6.194 6.758 9.29z" fill-rule="evenodd" stroke-width="1.82" fill="#fff"/><path d="M909.947 234.283s43.077 5.068 45.048 5.068 9.572 2.535 10.98 5.07M912.2 231.744l59.968 1.407m-59.682-2.813s56.87-3.378 60.813-9.29m-59.134-3.098s57.154-6.193 57.718-5.35m-59.683-1.688s55.464-8.728 56.026-7.32m-214.251-28.435s17.456 19.145 15.766 32.095" stroke-width="1.82" fill="none"/><path d="M768.615 197.117s5.63 8.164 7.883 9.01 21.96 1.97 23.087 10.416c1.126 5.35-4.223 3.66-3.378 7.6 1.407 5.07 14.64 11.544 29 3.943m-13.232 3.944s11.824 17.457 29.28-1.406m-9.011 7.603s14.358 7.602 26.183-12.106m-15.209 13.785s7.038 5.913 21.68-1.97m20.277-7.884s21.678 4.504 23.087 5.912m-14.925-10.689c.28 0 15.203.563 15.203.563m-24.498-9.014s25.9-1.69 29.28 3.66M872.78 208.66s36.32 1.407 38.01 3.378m-29.847 33.778s6.194-1.688 7.04-.843M866.87 261.02s8.166 7.04 18.584 3.943m-14.079 7.892s9.29 4.223 20.272 1.688m-17.173 5.341s9.29 6.194 15.485 5.067m-19.703-1.395s6.475 4.786 6.756 7.32m-15.764-1.696s1.97 10.134 9.01 13.794m-13.801-9.291s-3.097 13.233 4.787 21.398m-12.949-10.983c0 .28-.562 6.193-.28 6.757m-50.399-57.995l15.204-.846s5.63-2.252 1.688-5.91m1.972 3.384c.282 0 14.358 1.126 18.02 5.35 3.658 4.222 8.163 12.668 10.697 14.077 2.534 1.407 3.097-.564 3.097-.564m-6.196-2.251s-7.6 12.95-1.688 16.892m-2.543-2.535s-6.756 9.01-1.407 13.514m-1.405-1.134s-5.35 8.73 1.128 14.64m-3.489-37.789c-.363.363-6.54 4.723-8.72 3.634m2.182 10.166s2.543 2.542 4.723 2.18m-4.422 11.032l4.057 2.783m-3.511 7.331l3.51 2.118m-67.101-140.2s7.4 3.85 13.323 0c5.92-3.85 34.343-18.355 41.745-20.724 7.4-2.37 11.546-15.988 13.027-21.908m-5.624 15.987l41.45-12.14s6.81-5.624 7.105-15.986m-2.968 11.249s41.45-4.144 41.45-19.54m-6.508 10.658s43.522-11.842 47.667-16.283" stroke-width="1.82" fill="none"/><path d="M785.018 178.206s26.35-13.62 30.495-15.1c4.144-1.48 13.617-13.32-.593-13.32" stroke-width="1.82" fill="none"/><path d="M797.753 183.535c.296 0 21.612-13.916 28.717-15.69 3.85-5.33 1.777-10.955-4.736-9.77" stroke-width="1.82" fill="none"/><path d="M828.245 164.29c.592-.295 11.547-.59 7.698 7.994-5.624 4.145-29.903 16.284-29.903 16.284m16.58-33.455l46.19-15.396s3.848-7.994-1.776-9.178m38.491-13.915c0 .296 5.923 3.553 2.37 8.882-6.514 3.85-37.304 11.25-37.304 11.25m81.709-24.868l-43.52 12.14m40.258-2.37l-37.895 11.547m34.647-2.073l-33.455 10.066m27.231-.592c-.89 0-24.87 7.4-24.87 7.4m19.547.002l-15.396 6.217m11.547 2.072c-.593 0-13.323 5.625-13.323 5.625m9.474 1.184l-11.842 5.625m-8.591 7.107s1.48.592 1.185 2.368m-31.09 13.914s5.034 1.777.296 6.514c-2.368 3.257-9.177 2.37-13.322 8.29m45.306-81.121s6.22 1.48 1.48 9.474c-12.435 4.737-37.6 12.435-37.6 12.435s-1.183 2.072-4.44 3.85c-3.256 1.775-39.08 11.84-39.08 11.84m81.715-28.422s6.81 2.962 0 7.995c-7.698 4.44-34.64 12.73-34.64 12.73s-.296 2.37-1.48 3.257c-1.184.888-36.71 12.73-36.71 12.73" stroke-width="1.82" fill="none"/><path d="M912.336 142.974s7.106 2.072.89 7.993c-7.403 4.44-31.088 12.435-31.088 12.435s-2.368 2.96-6.217 4.145c-3.848 1.184-28.42 11.25-28.42 11.25m66.609-27.829c2.074.888 7.698 1.776.89 7.106-7.994 3.552-27.534 11.25-27.534 11.25l-1.777 3.257-31.086 13.323m61.282-26.942s2.96 3.553-3.553 7.698c-7.106 3.85-22.5 9.77-22.5 9.77m22.504-9.18s3.257 2.074-.887 5.034c-4.74 2.37-23.39 12.14-23.39 12.14l-12.14 7.992" stroke-width="1.82" fill="none"/><path d="M869.697 140.013c0 .296 5.033 4.44 3.256 9.178 4.442 3.258 3.553 6.81 3.553 6.81s6.217 3.553 5.33 8.586c6.217 1.48 5.92 5.034 5.92 5.034l-2.072 3.256s6.217-.296.888 7.698c3.257 1.776 1.777 3.85 1.777 3.85m-1.782-3.555c-.89 0-21.612 7.698-26.942 12.435" stroke-width="1.82" fill="none"/><path d="M836.543 171.693s6.217-.296 5.33 6.513c7.106-2.37 5.625 4.44 5.625 4.44s8.29-3.256 6.81 7.106c5.328-1.184 4.44 4.145 4.44 4.145s4.737-.296 4.737 2.37c3.257-2.962 6.81-1.482 6.81-1.482s2.368-3.256 5.624-2.368m-33.752-14.507c0 .592-27.83 15.987-27.83 15.987m33.153-10.955l-21.02 13.027m28.13-6.514c0 .297-18.356 10.955-18.356 10.955m22.506-6.81s-13.027 10.66-15.987 10.067m20.423-6.81s-7.402 5.626-13.62 8.29m21.318-10.657s2.368 2.96-12.434 10.657" stroke-width="1.82" fill="none"/></g></g></svg>

<svg xmlns="http://www.w3.org/2000/svg" height="512" width="512">
  <defs>
    <clipPath id="a">
      <path fill="gray" d="M496.06 15.937h496.06v496.06H496.06z"/>
    </clipPath>
  </defs>
  <g clip-path="url(#a)" transform="translate(-512 -16.45) scale(1.032)">
    <path fill="#006" d="M0 15.937h992.13v496.06H0z"/>
    <path d="M0 263.97L992.13 512V15.94L0 263.97z" fill-rule="evenodd" fill="#bd1021"/>
    <path d="M992.13 42.512v442.91L106.3 263.962l885.83-221.46z" fill-rule="evenodd" fill="#fff"/>
    <g stroke="#000">
      <path stroke-linejoin="round" d="M825.487 319.59s-6.193-5.07 1.127-13.234c-3.942-3.378-.282-9.853-.282-9.853s-6.757-2.534.282-12.95c-5.068-3.38-2.816-10.982-2.816-10.982s-16.61-6.193-.844-12.104c-12.95 5.63-25.058-7.603-25.058-7.603l-18.863.564c-3.2-15.67-28.07-2.06-9.58-47.01-4.787-.846-10.136-2.253-15.485 1.688-5.35 3.94-20.553 12.387-29.562 3.94s5.91-20.552 6.194-20.833c.28-.28 19.99-10.417 22.804-17.173-.28-5.07-6.475-9.01-.845-19.99 6.475-10.418 46.17-20.273 64.2-23.65 8.726-3.943 12.668-11.544 12.668-11.544l1.97 7.32s39.98-11.825 41.95-17.456.846 5.068.846 5.068c15.766-1.408 35.755-14.92 38.57-8.728 13.233-2.534 38.573-13.795 38.573-13.795s8.727-.28 2.533 9.29c3.942 6.195-1.126 11.544-1.407 11.544-.283 0 1.688 6.193-3.38 9.572 1.69 5.35-3.097 9.572-3.097 9.572s2.254 6.476-6.756 9.854c.845 5.63-5.068 6.757-5.068 6.757s.845 5.913-3.097 8.447c0 4.504-4.504 6.757-4.504 6.757s2.815 1.688-1.126 4.503c-3.94 2.816-44.765 27.873-44.765 27.592 0-.282 29.843 5.35 31.813 6.475s24.495 16.05 24.495 16.05l-22.806 28.153s-25.338-2.815-26.464-1.408 5.35 1.97 6.756 4.223c1.41 2.252 3.66 7.603 8.165 7.04 4.504-.565-8.447 8.164-16.893 9.01 0 3.096 10.698 3.377 13.514.844 2.817-2.535-6.757 7.32-7.883 8.727s12.67-1.972 12.67-1.972-2.253 9.29-14.358 12.107c4.784 7.883 2.813 12.95 2.532 12.95s-7.884-7.883-15.204-6.475c1.97 7.602 7.884 14.64 9.574 15.767 1.688 1.126-13.233.844-15.204-3.38s-3.66 10.136 1.69 14.642c-6.194.28-11.544-3.38-11.544-3.38s-3.66 8.445-1.126 12.67c2.534 4.223-8.728-8.448-8.728-8.448l-21.397 9.01-4.787-8.165z" fill-rule="evenodd" stroke-width="1.7061250000000001" fill="#9c3900"/>
      <path d="M660.12 302.828c.5 0 31.083-.502 45.123-8.524 7.02 11.03 16.545 18.55 16.545 18.55l4.512-16.042s11.03.5 12.033 3.008c-1.504 3.007-2.005 7.018-2.005 7.018s7.52.503 8.02 1.504c.503 1.004-2.004 9.526-2.004 9.526l32.087 7.52s2.508-12.533 5.015-11.03c2.507 1.505 13.537 17.047 29.08 18.05s16.544-13.036 16.544-13.036l3.51 2.007s6.516-14.04 7.52-14.04 2.506 2.006 11.03 2.006c2.506 3.008 3.51 10.026 3.51 10.026s-9.528 9.527-6.52 17.048 3.51 5.514 3.51 5.514l69.19 16.545s3.51 5.515-2.507 8.523c0 .5-69.69-16.044-69.69-16.044s-6.52 7.52-11.532 6.015-1.503 3.008-1.503 3.008L906.79 366s5.517 7.02 1.506 9.025c-5.014.5-81.222-5.014-81.222-5.014s-4.512 9.527-9.525 1.505c-3.51 5.515-7.522-1.504-7.522-1.504s-6.517 5.015-7.52-.5c-5.516 4.01-9.025-2.507-9.025-2.507l-32.088-2.006-2.005 3.008s5.515 1.504-3.008 5.015c-8.523 3.51 51.138 2.005 52.643 2.505 1.504.503-4.01 5.015-4.01 5.015s30.583 2.005 36.097-4.512c5.516-6.52-2.005 8.522-2.005 8.522s24.066-1.002 24.066-2.005-.502 7.52-17.046 6.518c10.026 6.518 22.56 10.528 22.56 10.528s-12.534 3.01-27.073-.5c2.506 6.518 13.537 12.534 13.537 12.534s-8.02 7.02-26.07-10.028c5.014 9.025 1.002 12.536.5 11.532-.5-1.003-9.023-13.537-29.078-18.05 12.534 8.023 7.018 11.533 7.018 11.533s-6.517-11.53-17.046 0c-4.01-10.528-19.553-16.544-38.605-17.547-6.017-7.02-9.527-5.014-23.564-9.025-8.022-9.024-19.554-19.05-19.554-19.05s.502-13.54 14.038-12.034c1.504 4.512 1.504 3.008 1.504 3.008s15.042-5.516 19.554 2.005c6.518-11.532 15.542-1.724 17.046 2.286 4.32.633 26.07 1.223 26.07 1.223s-2.506-4.512-1.002-4.01c1.504.5 13.537-4.512 13.036-6.017-.502-1.505-1.003-6.518 1.002-6.017 2.006.5-17.046-2.507-27.575 5.516-3.51-3.512-1.003-13.038-1.003-13.038l-31.084-6.517-1.504 8.022s-9.025 1.504-8.523-.5c.502-2.008-2.005 7.017-2.005 7.017s-12.033-3.008-12.033-3.51 3.51-18.05 3.51-17.548c0 .503-10.028 1.003-24.066 11.532-4.01-12.534-35.597-29.08-35.597-29.58z" fill-rule="evenodd" stroke-width="1.3649pt" fill="#ffc221"/>
      <path d="M736.328 307.346l-6.518 29.08M742.343 318.374l-2.005 9.526M774.432 325.895l-3.008 9.025M830.087 387.056c-.5 0-16.043 2.005-18.05 1.504-2.004-.5 24.568 8.022 24.568 11.53M802.01 390.578s-15.542-10.027-18.048-9.025c-2.507 1.003 15.542-.5 17.046-2.005M769.92 379.044s-16.043.5-17.547-1.003 15.542 11.03 18.55 10.03M738.834 372.015c-.5 0-11.03-4.01-15.542-5.015 4.01 4.012 7.02 9.527 17.046 11.532M742.846 365.504c-.502-1.003-20.055-7.02-20.055-10.028 4.513 1.505 11.03 3.51 17.047 2.005M846.63 342.438l-2.005 9.023" stroke-width="1.3649pt" fill="none"/>
      <path d="M699.226 261.717s-21.058 18.048 0 28.577c1.003-7.02 2.507-8.02 2.507-8.02s17.547 6.516 28.076-9.026c-4.513-6.517-12.535-4.01-12.535-4.01s-16.546 0-18.05-7.52z" fill-rule="evenodd" stroke-width="1.3649pt" fill="#ffc221"/>
      <path d="M716.775 269.743l-14.54 12.534M761.554 356.796s3.352 3.695.343 8.207M832.094 360.495l-5.515.502M786.97 357.48l10.027 1.503M813.94 331.696s.282 10.136-8.164 9.854c-8.446-.282-5.632.282-5.632.282" stroke-width="1.3649pt" fill="none"/>
      <path d="M820.424 330.003s3.378 1.126 2.534 3.66c-.845 2.534.844 9.854-9.01 16.893-10.418 2.252-9.29-8.727-9.29-8.727" stroke-width="1.3649pt" fill="none"/>
      <path d="M824.082 333.102s6.194-3.66 7.038 2.253c.844 5.91-5.067 16.892-9.29 18.582-4.225 1.688-9.01-.283-8.448-3.097M831.684 335.64s5.632-4.505 7.32 1.408c1.69 5.912-4.504 19.145-7.04 19.426M839.56 337.046s2.815-1.407 4.785.28M830.55 357.315c-1.125.28-5.91.562-7.6-3.097M805.22 347.46c-.282 0-5.913.283-5.913.283M826.893 369.708l-.562-9.29-2.25-3.098-3.943 3.942s-.564 9.29-2.252 10.136M820.137 360.973c-.28-.562-3.097-5.91-3.097-5.91l-4.787 5.91s-.562 8.447-2.252 9.292M812.248 360.686c0-.28-1.97-5.63-1.97-5.63s-5.63 3.097-6.195 5.35c-.562 2.25-.845 8.445-2.252 9.01M804.086 359.28s.564-5.067-1.126-5.067-9.29 7.038-9.572 13.232" stroke-width="1.3649pt" fill="none"/>
      <path stroke-linejoin="round" d="M699.918 261.868s2.815-2.816 3.66-6.194c.845-3.38-1.126-7.04 2.253-10.136 3.38-3.097 47.862-21.96 51.523-25.62 3.66-3.66 10.417-11.544 11.262-13.233.844-1.69 3.378 8.446-4.224 12.95 8.166-2.252 13.515-4.785 16.893-3.66-3.38 4.787-12.387 12.67-16.61 12.67 9.854-3.66 18.862-6.757 21.397-4.786 2.533 1.97-12.107 11.825-18.02 12.387 9.855-2.533 23.088-6.475 24.776-2.252-5.35 1.69-3.66 3.095-14.64 9.29-1.407 1.128-8.446 1.408-8.446 1.408 8.446-.845 19.99-4.223 21.115 1.97-6.756 2.534-9.29 5.914-14.92 7.32-5.632 1.41-18.583 3.943-26.466 7.04-7.884 3.097-19.428 12.106-19.428 12.106s-25.057.844-25.057.562c0-.282-4.786-11.543-5.068-11.824z" fill-rule="evenodd" stroke-width="1.3649pt" fill="#fff"/>
      <path d="M711.742 259.902s.282-5.63 2.816-7.6c2.533-1.972 15.203-6.76 18.02-10.982 2.814-4.223-4.224 7.32-3.098 10.417M716.81 251.453s6.194 2.254 4.786 7.04" stroke-width="1.3649pt" fill="none"/>
      <path d="M724.13 254.694c0 2.566-2.08 4.646-4.645 4.646s-4.646-2.08-4.646-4.646 2.08-4.645 4.645-4.645 4.645 2.08 4.645 4.644z" stroke-width="1.18531pt" fill="none"/>
      <path d="M914.738 244.697l48.707 9.29s5.35-6.193 2.534-9.57c7.32-1.69 5.348-11.263 5.348-11.263s8.446-3.66 1.408-12.107c4.788-4.786-1.126-8.446-1.126-8.446s1.97-8.445-4.223-9.29c1.69-6.756-10.7-9.01-10.7-9.01s-25.62 7.04-43.638 7.603c5.91 5.912-2.254 9.572-2.254 9.572s4.787 3.38 3.38 6.194c-1.41 2.815.843 5.912-5.35 7.883 8.164 3.66-.845 9.853-.845 9.853s9.01 6.194 6.758 9.29z" fill-rule="evenodd" stroke-width="1.3649pt" fill="#fff"/>
      <path d="M909.947 234.283s43.077 5.068 45.048 5.068 9.572 2.535 10.98 5.07M912.2 231.744l59.968 1.407M912.486 230.338s56.87-3.378 60.813-9.29M914.165 217.95s57.154-6.193 57.718-5.35M912.2 210.912s55.464-8.728 56.026-7.32M753.975 175.157s17.456 19.145 15.766 32.095" stroke-width="1.3649pt" fill="none"/>
      <path d="M768.615 197.117s5.63 8.164 7.883 9.01 21.96 1.97 23.087 10.416c1.126 5.35-4.223 3.66-3.378 7.6 1.407 5.07 14.64 11.544 29 3.943M811.975 232.03s11.824 17.457 29.28-1.406M832.244 238.227s14.358 7.602 26.183-12.106M843.218 239.906s7.038 5.913 21.68-1.97M885.175 230.052s21.678 4.504 23.087 5.912M893.337 225.275c.28 0 15.203.563 15.203.563M884.042 216.824s25.9-1.69 29.28 3.66M872.78 208.66s36.32 1.407 38.01 3.378M880.943 245.816s6.194-1.688 7.04-.843M866.87 261.02s8.166 7.04 18.584 3.943M871.375 272.855s9.29 4.223 20.272 1.688M874.474 279.884s9.29 6.194 15.485 5.067M870.256 283.556s6.475 4.786 6.756 7.32M861.248 289.18s1.97 10.134 9.01 13.794M856.457 293.683s-3.097 13.233 4.787 21.398M848.295 304.098c0 .28-.562 6.193-.28 6.757M797.616 252.86l15.204-.846s5.63-2.252 1.688-5.91M816.48 249.488c.282 0 14.358 1.126 18.02 5.35 3.658 4.222 8.163 12.668 10.697 14.077 2.534 1.407 3.097-.564 3.097-.564M842.098 266.1s-7.6 12.95-1.688 16.892M837.867 280.457s-6.756 9.01-1.407 13.514M835.055 292.837s-5.35 8.73 1.128 14.64M832.694 269.688c-.363.363-6.54 4.723-8.72 3.634M826.156 283.488s2.543 2.542 4.723 2.18M826.457 296.7l4.057 2.783M827.003 306.814l3.51 2.118M763.412 168.732s7.4 3.85 13.323 0c5.92-3.85 34.343-18.355 41.745-20.724 7.4-2.37 11.546-15.988 13.027-21.908M825.883 142.087l41.45-12.14s6.81-5.624 7.105-15.986M871.47 125.21s41.45-4.144 41.45-19.54M906.412 116.328s43.522-11.842 47.667-16.283" stroke-width="1.3649pt" fill="none"/>
      <path d="M785.018 178.206s26.35-13.62 30.495-15.1c4.144-1.48 13.617-13.32-.593-13.32" stroke-width="1.3649pt" fill="none"/>
      <path d="M797.753 183.535c.296 0 21.612-13.916 28.717-15.69 3.85-5.33 1.777-10.955-4.736-9.77" stroke-width="1.3649pt" fill="none"/>
      <path d="M828.245 164.29c.592-.295 11.547-.59 7.698 7.994-5.624 4.145-29.903 16.284-29.903 16.284M822.62 155.113l46.19-15.396s3.848-7.994-1.776-9.178M905.525 116.624c0 .296 5.923 3.553 2.37 8.882-6.514 3.85-37.304 11.25-37.304 11.25M952.3 111.888l-43.52 12.14M949.038 121.658l-37.895 11.547M945.79 131.132l-33.455 10.066M939.566 140.606c-.89 0-24.87 7.4-24.87 7.4M934.243 148.008l-15.396 6.217M930.394 156.297c-.593 0-13.323 5.625-13.323 5.625M926.545 163.106l-11.842 5.625M906.112 175.838s1.48.592 1.185 2.368M876.207 192.12s5.034 1.777.296 6.514c-2.368 3.257-9.177 2.37-13.322 8.29M908.487 125.803s6.22 1.48 1.48 9.474c-12.435 4.737-37.6 12.435-37.6 12.435s-1.183 2.072-4.44 3.85c-3.256 1.775-39.08 11.84-39.08 11.84M910.562 134.98s6.81 2.962 0 7.995c-7.698 4.44-34.64 12.73-34.64 12.73s-.296 2.37-1.48 3.257c-1.184.888-36.71 12.73-36.71 12.73" stroke-width="1.3649pt" fill="none"/>
      <path d="M912.336 142.974s7.106 2.072.89 7.993c-7.403 4.44-31.088 12.435-31.088 12.435s-2.368 2.96-6.217 4.145c-3.848 1.184-28.42 11.25-28.42 11.25M914.11 150.968c2.074.888 7.698 1.776.89 7.106-7.994 3.552-27.534 11.25-27.534 11.25l-1.777 3.257-31.086 13.323M915.885 158.962s2.96 3.553-3.553 7.698c-7.106 3.85-22.5 9.77-22.5 9.77M912.336 167.25s3.257 2.074-.887 5.034c-4.74 2.37-23.39 12.14-23.39 12.14l-12.14 7.992" stroke-width="1.3649pt" fill="none"/>
      <path d="M869.697 140.013c0 .296 5.033 4.44 3.256 9.178 4.442 3.258 3.553 6.81 3.553 6.81s6.217 3.553 5.33 8.586c6.217 1.48 5.92 5.034 5.92 5.034l-2.072 3.256s6.217-.296.888 7.698c3.257 1.776 1.777 3.85 1.777 3.85M886.567 180.87c-.89 0-21.612 7.698-26.942 12.435" stroke-width="1.3649pt" fill="none"/>
      <path d="M836.543 171.693s6.217-.296 5.33 6.513c7.106-2.37 5.625 4.44 5.625 4.44s8.29-3.256 6.81 7.106c5.328-1.184 4.44 4.145 4.44 4.145s4.737-.296 4.737 2.37c3.257-2.962 6.81-1.482 6.81-1.482s2.368-3.256 5.624-2.368M842.167 177.91c0 .592-27.83 15.987-27.83 15.987M847.49 182.942l-21.02 13.027M854.6 189.455c0 .297-18.356 10.955-18.356 10.955M858.75 193.6s-13.027 10.66-15.987 10.067M863.186 196.857s-7.402 5.626-13.62 8.29M870.884 194.49s2.368 2.96-12.434 10.657" stroke-width="1.3649pt" fill="none"/>
    </g>
  </g>
</svg>
